svgs/sharp-solid/i.svg

<svg xmlns="http://www.w3.org/2000/svg" viewBox="0 0 320 512"><!--! Font Awesome Pro 6.6.0 by @fontawesome - https://fontawesome.com License - https://fontawesome.com/license (Commercial License) Copyright 2024 Fonticons, Inc. --><path d="M32 32L0 32 0 96l32 0 96 0 0 320-96 0L0 416l0 64 32 0 96 0 64 0 96 0 32 0 0-64-32 0-96 0 0-320 96 0 32 0 0-64-32 0-96 0-32 0-32 0L32 32z"/></svg>

<svg xmlns="http://www.w3.org/2000/svg" viewBox="0 0 320 512"><!--! Font Awesome Pro 6.4.0 by @fontawesome - https://fontawesome.com License - https://fontawesome.com/license (Commercial License) Copyright 2023 Fonticons, Inc. --><path d="M32 32H0V96H32h96V416H32 0v64H32h96 64 96 32V416H288 192V96h96 32V32H288 192 160 128 32z"/></svg>
